X: 24342
T: Louis
R: reel
M: 4/4
K: Edorian
EB, (3B,B,B, EGFE|DA, (3A,A,A, DEFD|GEED EFGA|B2eB dBAF|
EB, (3B,B,B, EGFE|DA, (3A,A,A, DEFD|E2BE dEBE|DEFA BEE2|
EB, (3B,B,B, EGFE|DA, (3A,A,A, DEFD|G3F EFGA|B2eB dBAF|
EB, (3B,B,B, EGFE|DA, (3A,A,A, DEFD|Edec dBAF|DEFA BEE2|
|:e3d egfe|d3f gfed|cdef gfge|f2af gfed|
eBBA GBFB|EBBA Bdef|g3e f3d|efed BAFD:|

